src/assets/outline/GlobalSearch.svg

<svg width="24" height="24" viewBox="0 0 24 24"  xmlns="http://www.w3.org/2000/svg">
<path d="M12 22.75C6.07 22.75 1.25 17.93 1.25 12C1.25 6.07 6.07 1.25 12 1.25C17.93 1.25 22.75 6.07 22.75 12C22.75 12.41 22.41 12.75 22 12.75C21.59 12.75 21.25 12.41 21.25 12C21.25 6.9 17.1 2.75 12 2.75C6.9 2.75 2.75 6.9 2.75 12C2.75 17.1 6.9 21.25 12 21.25C12.41 21.25 12.75 21.59 12.75 22C12.75 22.41 12.41 22.75 12 22.75Z" />
<path d="M9.00024 21.75H8.00024C7.59024 21.75 7.25024 21.41 7.25024 21C7.25024 20.59 7.57023 20.26 7.98023 20.25C6.41023 14.89 6.41023 9.11 7.98023 3.75C7.58023 3.74 7.25024 3.41 7.25024 3C7.25024 2.59 7.59024 2.25 8.00024 2.25H9.00024C9.24024 2.25 9.47024 2.37 9.61024 2.56C9.75024 2.76 9.79025 3.00999 9.71025 3.23999C7.83025 8.88999 7.83025 15.12 9.71025 20.77C9.79025 21 9.75024 21.25 9.61024 21.45C9.47024 21.65 9.24024 21.75 9.00024 21.75Z" />
<path d="M16.46 12.75C16.05 12.75 15.71 12.41 15.71 12C15.71 9.01996 15.2299 6.06995 14.2899 3.23995C14.1599 2.84995 14.3699 2.41994 14.7599 2.28994C15.1499 2.15994 15.58 2.36997 15.71 2.75997C16.7 5.73997 17.21 8.84996 17.21 12C17.21 12.41 16.87 12.75 16.46 12.75Z" />
<path d="M12 17.2098C9.2 17.2098 6.43 16.8098 3.75 16.0198C3.74 16.4198 3.41 16.7498 3 16.7498C2.59 16.7498 2.25 16.4098 2.25 15.9998V14.9998C2.25 14.7598 2.37 14.5298 2.56 14.3898C2.76 14.2498 3.01001 14.2098 3.24001 14.2898C6.07001 15.2298 9.02 15.7098 12 15.7098C12.41 15.7098 12.75 16.0498 12.75 16.4598C12.75 16.8698 12.41 17.2098 12 17.2098Z" />
<path d="M21.0002 9.74989C20.9202 9.74989 20.8402 9.73991 20.7602 9.70991C15.1102 7.82991 8.88018 7.82991 3.23018 9.70991C2.84018 9.83991 2.41018 9.62988 2.28018 9.23988C2.15018 8.84988 2.36018 8.41986 2.75018 8.28986C8.71018 6.29986 15.2702 6.29986 21.2202 8.28986C21.6102 8.41986 21.8202 8.84988 21.6902 9.23988C21.6102 9.54988 21.3102 9.74989 21.0002 9.74989Z" />
<path d="M18.2 22.15C16.02 22.15 14.25 20.38 14.25 18.2C14.25 16.02 16.02 14.25 18.2 14.25C20.38 14.25 22.15 16.02 22.15 18.2C22.15 20.38 20.38 22.15 18.2 22.15ZM18.2 15.75C16.85 15.75 15.75 16.85 15.75 18.2C15.75 19.55 16.85 20.65 18.2 20.65C19.55 20.65 20.65 19.55 20.65 18.2C20.65 16.85 19.55 15.75 18.2 15.75Z" />
<path d="M21.9999 22.75C21.8099 22.75 21.6199 22.68 21.4699 22.53L20.4699 21.53C20.1799 21.24 20.1799 20.7599 20.4699 20.4699C20.7599 20.1799 21.2399 20.1799 21.5299 20.4699L22.5299 21.4699C22.8199 21.7599 22.8199 22.24 22.5299 22.53C22.3799 22.68 22.1899 22.75 21.9999 22.75Z" />
</svg>

<?xml version="1.0" encoding="UTF-8"?>
<svg width="24" height="24" viewBox="0 0 24 24" xmlns="http://www.w3.org/2000/svg">
 <path d="m12 22.75c-5.93 0-10.75-4.82-10.75-10.75s4.82-10.75 10.75-10.75 10.75 4.82 10.75 10.75c0 0.41-0.34 0.75-0.75 0.75s-0.75-0.34-0.75-0.75c0-5.1-4.15-9.25-9.25-9.25s-9.25 4.15-9.25 9.25 4.15 9.25 9.25 9.25c0.41 0 0.75 0.34 0.75 0.75s-0.34 0.75-0.75 0.75z"/>
 <path d="m9.0002 21.75h-1c-0.41 0-0.75-0.34-0.75-0.75s0.31999-0.74 0.72999-0.75c-1.57-5.36-1.57-11.14 0-16.5-0.4-0.01-0.72999-0.34-0.72999-0.75s0.34-0.75 0.75-0.75h1c0.24 0 0.47 0.12 0.61 0.31 0.14 0.2 0.18001 0.44999 0.10001 0.67999-1.88 5.65-1.88 11.88 0 17.53 0.08 0.23 0.03999 0.48-0.10001 0.68s-0.37 0.3-0.61 0.3z"/>
 <path d="m16.46 12.75c-0.41 0-0.75-0.34-0.75-0.75 0-2.98-0.4801-5.93-1.4201-8.76-0.13-0.39 0.08-0.82001 0.47-0.95001s0.8201 0.08003 0.9501 0.47003c0.99 2.98 1.5 6.09 1.5 9.24 0 0.41-0.34 0.75-0.75 0.75z"/>
 <path d="m12 17.21c-2.8 0-5.57-0.4-8.25-1.19-0.01 0.4-0.34 0.73-0.75 0.73s-0.75-0.34-0.75-0.75v-1c0-0.24 0.12-0.47 0.31-0.61 0.2-0.14 0.45001-0.18 0.68001-0.1 2.83 0.94 5.78 1.42 8.76 1.42 0.41 0 0.75 0.34 0.75 0.75s-0.34 0.75-0.75 0.75z"/>
 <path d="m21 9.7499c-0.08 0-0.16-0.00998-0.24-0.03998-5.65-1.88-11.88-1.88-17.53 0-0.39 0.13-0.82-0.08003-0.95-0.47003s0.08-0.82002 0.47-0.95002c5.96-1.99 12.52-1.99 18.47 0 0.39 0.13 0.6 0.56002 0.47 0.95002-0.08 0.31-0.38 0.51001-0.69 0.51001z"/>
 <path d="m18.2 22.15c-2.18 0-3.95-1.77-3.95-3.95s1.77-3.95 3.95-3.95 3.95 1.77 3.95 3.95-1.77 3.95-3.95 3.95zm0-6.4c-1.35 0-2.45 1.1-2.45 2.45s1.1 2.45 2.45 2.45 2.45-1.1 2.45-2.45-1.1-2.45-2.45-2.45z"/>
 <path d="m22 22.75c-0.19 0-0.38-0.07-0.53-0.22l-1-1c-0.29-0.29-0.29-0.7701 0-1.0601s0.77-0.29 1.06 0l1 1c0.29 0.29 0.29 0.7701 0 1.0601-0.15 0.15-0.34 0.22-0.53 0.22z"/>
</svg>
